app/assets/images/edit.svg

<svg width="28" height="28" viewBox="0 0 28 28" fill="none" xmlns="http://www.w3.org/2000/svg">
<path d="M5.0995 22.4C5.1695 22.4 5.2395 22.393 5.3095 22.3825L11.1965 21.35C11.2665 21.336 11.333 21.3045 11.382 21.252L26.2185 6.4155C26.2509 6.38312 26.2767 6.34466 26.2943 6.30232C26.3118 6.25998 26.3209 6.21459 26.3209 6.16875C26.3209 6.12291 26.3118 6.07752 26.2943 6.03518C26.2767 5.99284 26.2509 5.95438 26.2185 5.922L20.4015 0.1015C20.335 0.0350001 20.2475 0 20.153 0C20.0585 0 19.971 0.0350001 19.9045 0.1015L5.068 14.938C5.0155 14.9905 4.984 15.0535 4.97 15.1235L3.9375 21.0105C3.90345 21.198 3.91562 21.391 3.97294 21.5727C4.03027 21.7544 4.13103 21.9195 4.2665 22.0535C4.4975 22.2775 4.788 22.4 5.0995 22.4ZM7.4585 16.296L20.153 3.605L22.7185 6.1705L10.024 18.8615L6.9125 19.411L7.4585 16.296ZM26.88 25.34H1.12C0.5005 25.34 0 25.8405 0 26.46V27.72C0 27.874 0.126 28 0.28 28H27.72C27.874 28 28 27.874 28 27.72V26.46C28 25.8405 27.4995 25.34 26.88 25.34Z" fill="#7485A9"/>
</svg>

<svg width="28" height="28" fill="none" xmlns="http://www.w3.org/2000/svg"><path d="M5.1 22.4c.07 0 .14-.007.21-.017l5.887-1.033a.343.343 0 00.185-.098L26.218 6.416a.35.35 0 000-.494L20.401.102A.346.346 0 0020.153 0a.346.346 0 00-.248.102L5.067 14.938a.355.355 0 00-.098.185l-1.032 5.888a1.172 1.172 0 00.328 1.043c.231.224.522.346.833.346zm2.359-6.104L20.152 3.605l2.566 2.565-12.695 12.691-3.111.55.545-3.115zM26.88 25.34H1.12c-.62 0-1.12.5-1.12 1.12v1.26c0 .154.126.28.28.28h27.44a.28.28 0 00.28-.28v-1.26c0-.62-.5-1.12-1.12-1.12z" fill="#7485A9"/></svg>
